X: 1
T:LARRY GROGAN'S -- JIG
M:6/8
L:1/8
R:jig
B:Ryan's Mammoth Collection
Z: Contributed by Ray Davies. ray:davies99.freeserve.co.uk 27june02
K:G
ud/c/|BGG BGG|AFA ABc|(d3/2c/B/c/) AFE|Ggg gdc|
BGG BGG|AFA ABc|(d3/2c/B/c/) AFD|A(.G.G) G2::
uf|(g3/2e/f/g/) fdc|(B3/2A/B/c/) dBG|(g3/2e/f/g/) fdc|(B3/2A/B/c/) (d2.f)|
(g3/2e/f/g/) fdc|(B3/2A/B/c/) dBc|(d3/2c/B/c/) AFD|A.G.G G2:|
